X:1
T:Culbratten
C:Iain Gelston
L:1/8
M:3/4
K:Amix
{A/G/A/G/}A2| {g/}e4 {A/G/A/G/}A2| {G/d/c/}d4 G2|{d/c/}d4 B2|{g/}A4 {g/A/G/A/G/}A2|
{g/}e4 {A/G/A/G/}A2|{G/d/c/}d4 G2|{d/c/}d4 {g/}B>d|{g/}A4 {g/A/G/A/G/}A2||
{g/}f4 {A/G/A/G/}A2|{g/f/}g4 {A/G/A/G/}A2|{a/g/}a3 g f2| {g/}e4 {A/G/A/G/}A2|
{g/}f4 {A/G/A/G/}A2|{g/f/}g4 {A/G/A/G/}A2|{a/g/}a3 g f2|{g/}e4 {A/G/A/G/}A2|
{g/}f3 e {c/}d2|{g/}d B3 c/d/e/f/|{g/f/}g3 f e2|{A/}e4 {A/G/A/G/}A2|
{g/}e4 d2|{g/B/d}B4 A2|{g/A/G/A/G/}(A6|A4)||



